X: 1
T: Reel Eug\`ene
R:reel
Z:
M:C|
K:Bm
|:\
"Bm"B2Bc dcB2 | "Em"e2ef gece | "F#7"f2fg fece | "Bm"fbbf bfdc |
"Bm"B2Bc dcB2 | "Em"e2ef gece | "F#7"f2fg fedc |1 "Bm"B4 "F#7"F4 :|2 "Bm"B4 "A7"A4 |]
|:\
"D"f2fe d2dB | AAdf "Ddim"b2f2 | "Em"a2ag e2 (3cec | "A7"Aceg (3faf e2 |
"D"f2fe d2dB | AAdf "Ddim"b2f2 | "Em"a2ag egec |1 "A7"dfec "D"d3e :|2 "A7"dfec "D"d4 |]

%%sep 1 1 500

